X: 26650
T: Midleton Thief, The
R: reel
M: 4/4
K: Emixolydian
|:"E" E2FD EFGA|ABBG AAGA|BEEB GABG|AGEB, DDB,D|
E2FD EFGA|ABBG AAGA|BBEB FEDF|1 "A" E3F E2ED:|2 "A" E3D E2 d2||
|:"E" (B4 B2)dB|e3f e2ga|abbg agfa gfeg fedf|
edBA B2dB|e3f e3f|edBe dBAd|BAGB AGED:|

